Numix-Circle/48x48/apps/sunflower.svg

<?xml version="1.0" encoding="UTF-8" standalone="no"?>
<svg
   xmlns:dc="http://purl.org/dc/elements/1.1/"
   xmlns:cc="http://creativecommons.org/ns#"
   xmlns:rdf="http://www.w3.org/1999/02/22-rdf-syntax-ns#"
   xmlns:svg="http://www.w3.org/2000/svg"
   xmlns="http://www.w3.org/2000/svg"
   xmlns:sodipodi="http://sodipodi.sourceforge.net/DTD/sodipodi-0.dtd"
   xmlns:inkscape="http://www.inkscape.org/namespaces/inkscape"
   viewBox="0 0 48 48"
   id="svg2"
   version="1.1"
   inkscape:version="0.48.5 r10040"
   width="100%"
   height="100%"
   sodipodi:docname="sunflower.svg">
  <metadata
     id="metadata61">
    <rdf:RDF>
      <cc:Work
         rdf:about="">
        <dc:format>image/svg+xml</dc:format>
        <dc:type
           rdf:resource="http://purl.org/dc/dcmitype/StillImage" />
      </cc:Work>
    </rdf:RDF>
  </metadata>
  <sodipodi:namedview
     pagecolor="#ffffff"
     bordercolor="#666666"
     borderopacity="1"
     objecttolerance="10"
     gridtolerance="10"
     guidetolerance="10"
     inkscape:pageopacity="0"
     inkscape:pageshadow="2"
     inkscape:window-width="1280"
     inkscape:window-height="998"
     id="namedview59"
     showgrid="true"
     inkscape:zoom="9.8333333"
     inkscape:cx="32.401709"
     inkscape:cy="16.076401"
     inkscape:window-x="0"
     inkscape:window-y="0"
     inkscape:window-maximized="1"
     inkscape:current-layer="svg2">
    <inkscape:grid
       type="xygrid"
       id="grid3827" />
  </sodipodi:namedview>
  <defs
     id="defs4">
    <linearGradient
       id="linearGradient3764"
       x1="1"
       x2="47"
       gradientUnits="userSpaceOnUse"
       gradientTransform="matrix(0,-1,1,0,-1.5e-6,47.999998)">
      <stop
         stop-color="#83b5e9"
         stop-opacity="1"
         id="stop7" />
      <stop
         offset="1"
         stop-color="#93c0ec"
         stop-opacity="1"
         id="stop9" />
    </linearGradient>
    <clipPath
       id="clipPath-129064243">
      <g
         transform="translate(0,-1004.3622)"
         id="g12">
        <path
           d="m -24 13 c 0 1.105 -0.672 2 -1.5 2 -0.828 0 -1.5 -0.895 -1.5 -2 0 -1.105 0.672 -2 1.5 -2 0.828 0 1.5 0.895 1.5 2 z"
           transform="matrix(15.333333,0,0,11.5,414.99999,878.8622)"
           fill="#1890d0"
           id="path14" />
      </g>
    </clipPath>
    <clipPath
       id="clipPath-142999819">
      <g
         transform="translate(0,-1004.3622)"
         id="g17">
        <path
           d="m -24 13 c 0 1.105 -0.672 2 -1.5 2 -0.828 0 -1.5 -0.895 -1.5 -2 0 -1.105 0.672 -2 1.5 -2 0.828 0 1.5 0.895 1.5 2 z"
           transform="matrix(15.333333,0,0,11.5,414.99999,878.8622)"
           fill="#1890d0"
           id="path19" />
      </g>
    </clipPath>
    <clipPath
       clipPathUnits="userSpaceOnUse"
       id="clipPath3055">
      <rect
         style="opacity:0.1;fill:#acacac;fill-opacity:1;fill-rule:nonzero;stroke:none"
         id="rect3057"
         width="46.779659"
         height="46.372883"
         x="6"
         y="-6.8135595" />
    </clipPath>
  </defs>
  <g
     id="g21">
    <path
       d="m 36.31 5 c 5.859 4.062 9.688 10.831 9.688 18.5 c 0 12.426 -10.07 22.5 -22.5 22.5 c -7.669 0 -14.438 -3.828 -18.5 -9.688 c 1.037 1.822 2.306 3.499 3.781 4.969 c 4.085 3.712 9.514 5.969 15.469 5.969 c 12.703 0 23 -10.298 23 -23 c 0 -5.954 -2.256 -11.384 -5.969 -15.469 c -1.469 -1.475 -3.147 -2.744 -4.969 -3.781 z m 4.969 3.781 c 3.854 4.113 6.219 9.637 6.219 15.719 c 0 12.703 -10.297 23 -23 23 c -6.081 0 -11.606 -2.364 -15.719 -6.219 c 4.16 4.144 9.883 6.719 16.219 6.719 c 12.703 0 23 -10.298 23 -23 c 0 -6.335 -2.575 -12.06 -6.719 -16.219 z"
       opacity="0.05"
       id="path23" />
    <path
       d="m 41.28 8.781 c 3.712 4.085 5.969 9.514 5.969 15.469 c 0 12.703 -10.297 23 -23 23 c -5.954 0 -11.384 -2.256 -15.469 -5.969 c 4.113 3.854 9.637 6.219 15.719 6.219 c 12.703 0 23 -10.298 23 -23 c 0 -6.081 -2.364 -11.606 -6.219 -15.719 z"
       opacity="0.1"
       id="path25" />
    <path
       d="m 31.25 2.375 c 8.615 3.154 14.75 11.417 14.75 21.13 c 0 12.426 -10.07 22.5 -22.5 22.5 c -9.708 0 -17.971 -6.135 -21.12 -14.75 a 23 23 0 0 0 44.875 -7 a 23 23 0 0 0 -16 -21.875 z"
       opacity="0.2"
       id="path27" />
  </g>
  <g
     id="g29">
    <path
       d="m 24 1 c 12.703 0 23 10.297 23 23 c 0 12.703 -10.297 23 -23 23 -12.703 0 -23 -10.297 -23 -23 0 -12.703 10.297 -23 23 -23 z"
       fill="url(#linearGradient3764)"
       fill-opacity="1"
       id="path31" />
  </g>
  <g
     id="g33" />
  <g
     id="g55">
    <path
       d="m 40.03 7.531 c 3.712 4.084 5.969 9.514 5.969 15.469 0 12.703 -10.297 23 -23 23 c -5.954 0 -11.384 -2.256 -15.469 -5.969 4.178 4.291 10.01 6.969 16.469 6.969 c 12.703 0 23 -10.298 23 -23 0 -6.462 -2.677 -12.291 -6.969 -16.469 z"
       opacity="0.1"
       id="path57" />
  </g>
  <path
     sodipodi:type="arc"
     style="opacity:0.1;fill:#acacac;fill-opacity:1;fill-rule:nonzero;stroke:none"
     id="path3040"
     sodipodi:cx="28.728813"
     sodipodi:cy="28.830509"
     sodipodi:rx="4.1186442"
     sodipodi:ry="4.1186442"
     d="m 32.847457,28.830509 a 4.1186442,4.1186442 0 1 1 -8.237288,0 4.1186442,4.1186442 0 1 1 8.237288,0 z"
     transform="translate(3.3559322,-0.69491554)" />
  <path
     style="opacity:0.1;fill:#000000;fill-opacity:1;fill-rule:nonzero;stroke:none"
     d="m 25.312129,10.000376 c -1.720653,1.416801 -2.200794,2.598913 -2.3125,3.625 -0.800629,-0.896923 -2.014613,-1.743042 -4.125,-1.8125 -0.942387,2.750278 -0.298505,4.041551 0.375,5.0625 -1.116603,-0.716888 -2.606109,-1.195615 -4.75,-0.75 -0.294397,2.976312 0.395119,4.443758 1.21875,5.46875 -1.181896,0.185219 -2.517016,0.784583 -3.71875,2.5 1.013248,1.298867 1.903177,1.898233 2.71875,2.1875 -3.883704,2.370718 -3.334968,7.51951 -2.71875,12.71875 6.766614,1.488701 10.422275,0.124471 12.375,-2.8125 0.202514,0.253011 0.417148,0.494889 0.6875,0.75 1.955944,-1.112594 2.62557,-2.187879 2.90625,-3.1875 0.680976,0.909888 1.753993,1.791082 3.65625,2.125 0.257236,-0.505176 0.427954,-0.954845 0.5625,-1.375 2.417256,0.698981 5.058203,0.541438 8.8125,-3.5 -2.259517,-2.877767 -3.88994,-4.353064 -5.25,-5.0625 1.112322,-0.201832 2.353232,-0.80929 3.5,-2.34375 -1.901144,-2.59772 -3.44742,-2.576682 -4.75,-2.59375 1.06139,-0.791037 2.227268,-2.043525 2.28125,-4.5625 -2.694541,-0.888878 -3.997277,-0.291937 -5,0.375 0.607402,-1.116226 1.052115,-2.644009 0.21875,-4.8125 -2.365251,0.165104 -3.44425,0.920643 -4.125,1.75 -0.20157,-1.197831 -0.771729,-2.5646 -2.5625,-3.75 z m 7.34375,11.78125 c 0.01932,0.0041 0.04327,-0.0033 0.0625,0 -0.0076,0.0125 -0.02379,0.01841 -0.03125,0.03125 -0.0036,-0.01255 -0.02763,-0.01872 -0.03125,-0.03125 z"
     id="path4053"
     inkscape:connector-curvature="0" />
  <path
     style="opacity:0.9;fill:#ffcb00;fill-opacity:1;stroke:none"
     d="M 24.305085,8.9999997 C 21.499673,11.310001 22,13 22,14.398305 22,15.129642 22.678508,16 24.572034,16 26.160946,16 27,15.27695 27,14.389831 27,13 27,10.783898 24.305085,8.9999997 z"
     id="path3849"
     inkscape:connector-curvature="0"
     sodipodi:nodetypes="ccccc" />
  <path
     style="opacity:0.9;fill:#ffcb00;fill-opacity:1;stroke:none"
     d="m 31,11 c -3.625245,0.253057 -4.198591,1.919699 -5.010102,3.05843 -0.424433,0.595576 -0.376994,1.698139 1.165026,2.797051 1.293955,0.92213 2.396875,0.82025 2.911717,0.09781 C 30.873234,15.821461 32.159355,14.016744 31,10.999998 z"
     id="path3849-0"
     inkscape:connector-curvature="0"
     sodipodi:nodetypes="ccccc" />
  <path
     style="opacity:0.9;fill:#ffcb00;fill-opacity:1;stroke:none"
     d="m 35.775928,15.438699 c -3.451136,-1.138464 -4.612857,0.186989 -5.795118,0.933659 -0.618343,0.390521 -0.991915,1.428952 0.01919,3.029919 0.848451,1.343419 1.907826,1.66674 2.657882,1.193033 1.175097,-0.742144 3.048802,-1.925503 3.118045,-5.156613 z"
     id="path3849-0-1"
     inkscape:connector-curvature="0"
     sodipodi:nodetypes="ccccc" />
  <path
     style="opacity:0.72222218;fill:#2a8925;fill-opacity:1;stroke:none"
     d="M 31,24.601695 27,32 c 3.850492,1.045225 7.047331,4.407948 13,-2 -4.626891,-5.892903 -6.658912,-6 -9,-5.398305 z"
     id="path4051"
     inkscape:connector-curvature="0"
     sodipodi:nodetypes="cccc" />
  <path
     style="opacity:0.9;fill:#ffcb00;fill-opacity:1;stroke:none"
     d="M 38.258041,22.609237 C 36.111814,19.676636 34.396029,20.079755 33,20 c -0.730147,-0.04171 -1.637787,0.586047 -1.745791,2.476487 -0.09063,1.586326 0.583387,2.465255 1.469063,2.515853 1.387569,0.07927 3.600063,0.205674 5.53477,-2.383106 z"
     id="path3849-0-1-6"
     inkscape:connector-curvature="0"
     sodipodi:nodetypes="ccccc"
     inkscape:transform-center-x="-1.5210087"
     inkscape:transform-center-y="-5.7996268" />
  <path
     style="opacity:0.9;fill:#ffcb00;fill-opacity:1;stroke:none"
     d="M 35.999996,30.000002 C 35.763162,26.015983 33.939392,25.367468 32.698058,24.463389 32.048819,23.99054 30.837476,24.030148 29.61321,25.711105 28.58589,27.121647 28.685279,28.334001 29.472814,28.907572 30.706625,29.806169 32.673949,31.239002 36,30 z"
     id="path3849-0-1-6-7"
     inkscape:connector-curvature="0"
     sodipodi:nodetypes="ccccc"
     inkscape:transform-center-x="0.33633678"
     inkscape:transform-center-y="0.63183599" />
  <path
     style="opacity:0.9;fill:#ffcb00;fill-opacity:1;stroke:none"
     d="m 30.623725,34.864457 c 1.648994,-3.238403 0.515184,-4.58781 -0.04343,-5.869687 C 30.288131,28.324326 29.318416,27.797499 27.582554,28.553945 26.125938,29.1887 25.645602,30.186743 26,31 c 0.55523,1.274107 1.440544,3.305689 4.623726,3.864457 z"
     id="path3849-0-1-6-7-3"
     inkscape:connector-curvature="0"
     sodipodi:nodetypes="ccccc"
     inkscape:transform-center-y="0.063708766"
     inkscape:transform-center-x="0.16765821" />
  <path
     style="opacity:0.82051284;fill:#2a8925;fill-opacity:1;stroke:none"
     d="M 11,38 C 10.214558,31.37296 9.5131206,24.798723 18,24 l 7,7 c -1.103694,5.60897 -4.528813,9.083725 -14,7 z"
     id="path4049"
     inkscape:connector-curvature="0"
     sodipodi:nodetypes="cccc" />
  <path
     style="opacity:0.9;fill:#ffcb00;fill-opacity:1;stroke:none"
     d="m 24.067229,35.94271 c 3.158787,-1.796804 2.954514,-3.547431 3.193382,-4.925183 C 27.385544,30.296939 26.865689,29.323469 25,29 c -1.565557,-0.271435 -2.515793,0.297655 -2.667339,1.171736 -0.237419,1.369402 -0.615993,3.552929 1.734569,5.770974 z"
     id="path3849-0-1-6-7-3-9"
     inkscape:connector-curvature="0"
     sodipodi:nodetypes="ccccc"
     inkscape:transform-center-y="0.31177265"
     inkscape:transform-center-x="-0.25412944" />
  <path
     style="opacity:0.9;fill:#ffcb00;fill-opacity:1;stroke:none"
     d="M 18.268071,34.473322 C 21.858675,33.912959 22.288246,32.203605 23,31 c 0.372261,-0.629505 0.23125,-1.724041 -1.398615,-2.687871 -1.367669,-0.808782 -2.457933,-0.613497 -2.90949,0.1501 -0.70744,1.196311 -1.835466,3.103839 -0.423823,6.011093 z"
     id="path3849-0-1-6-7-3-9-4"
     inkscape:connector-curvature="0"
     sodipodi:nodetypes="ccccc"
     inkscape:transform-center-y="0.087929477"
     inkscape:transform-center-x="-0.39094201" />
  <path
     style="opacity:0.9;fill:#ffcb00;fill-opacity:1;stroke:none"
     d="m 12.682157,30.030388 c 3.403843,1.272909 4.616643,-0.006 5.827271,-0.705713 0.633181,-0.365975 1.04718,-1.388959 0.09963,-3.028341 C 17.813939,24.920676 16.768055,24.556068 16,25 c -1.203291,0.695501 -3.121956,1.804479 -3.31784,5.030388 z"
     id="path3849-0-1-6-7-3-9-4-0"
     inkscape:connector-curvature="0"
     sodipodi:nodetypes="ccccc"
     inkscape:transform-center-y="6.6530839"
     inkscape:transform-center-x="-1.9341274" />
  <path
     style="opacity:0.9;fill:#ffcb00;fill-opacity:1;stroke:none"
     d="m 10.995392,23.08233 c 2.235247,2.86533 3.937862,2.409704 5.335667,2.446585 C 17.062143,25.548195 17.950081,24.892864 18,23 c 0.04189,-1.588362 -0.658793,-2.446182 -1.545606,-2.469568 -1.389348,-0.03663 -3.60468,-0.09505 -5.458999,2.5519 z"
     id="path3849-0-1-6-7-3-9-4-0-9"
     inkscape:connector-curvature="0"
     sodipodi:nodetypes="ccccc"
     inkscape:transform-center-y="6.9211011"
     inkscape:transform-center-x="2.3126903" />
  <path
     style="opacity:0.9;fill:#ffcb00;fill-opacity:1;stroke:none"
     d="M 13.490772,15.126902 C 13.041349,19.67051 14.850115,20.745688 16,22 c 0.601424,0.656024 1.885313,0.838999 3.470838,-0.829141 1.330464,-1.399787 1.438425,-2.78756 0.70889,-3.583325 -1.142951,-1.246698 -2.965388,-3.234584 -6.688955,-2.460628 z"
     id="path3849-0-1-6-7-3-9-4-0-9-9"
     inkscape:connector-curvature="0"
     sodipodi:nodetypes="ccccc"
     inkscape:transform-center-y="4.814434"
     inkscape:transform-center-x="7.063079" />
  <path
     style="opacity:0.9;fill:#ffcb00;fill-opacity:1;stroke:none"
     d="m 17.879498,10.822999 c -1.177984,3.437848 0.134082,4.6147 0.867113,5.805449 0.383401,0.622784 1.417477,1.008242 3.029939,0.01557 C 23.129619,15.81104 23.465069,14.755443 23,14 22.271379,12.81647 21.109597,10.929311 17.879498,10.823 z"
     id="path3849-0-1-6-7-3-9-4-0-9-9-5"
     inkscape:connector-curvature="0"
     sodipodi:nodetypes="ccccc"
     inkscape:transform-center-y="2.1555485"
     inkscape:transform-center-x="6.5965024" />
  <path
     sodipodi:type="arc"
     style="fill:#fb9201;fill-opacity:1;fill-rule:nonzero;stroke:none"
     id="path3038"
     sodipodi:cx="30"
     sodipodi:cy="28.576271"
     sodipodi:rx="8.1355934"
     sodipodi:ry="6"
     d="m 38.135593,28.576271 a 8.1355934,6 0 1 1 -16.271186,0 8.1355934,6 0 1 1 16.271186,0 z"
     transform="matrix(0.98333338,0,0,1.3333334,-5.5000013,-15.101697)" />
  <path
     transform="matrix(0.86041671,0,0,1.1666667,-1.8125011,-10.338985)"
     d="m 38.135593,28.576271 a 8.1355934,6 0 1 1 -16.271186,0 8.1355934,6 0 1 1 16.271186,0 z"
     sodipodi:ry="6"
     sodipodi:rx="8.1355934"
     sodipodi:cy="28.576271"
     sodipodi:cx="30"
     id="path4097"
     style="fill:#5f3b29;fill-opacity:1;fill-rule:nonzero;stroke:none"
     sodipodi:type="arc" />
</svg>

<svg xmlns="http://www.w3.org/2000/svg" viewBox="0 0 48 48">
 <defs>
  <linearGradient id="linearGradient3764" x1="1" x2="47" gradientUnits="userSpaceOnUse" gradientTransform="matrix(0,-1,1,0,-1.5e-6,47.999998)">
   <stop style="stop-color:#83b5e9;stop-opacity:1"/>
   <stop offset="1" style="stop-color:#93c0ec;stop-opacity:1"/>
  </linearGradient>
 </defs>
 <g>
  <path d="m 36.31 5 c 5.859 4.062 9.688 10.831 9.688 18.5 c 0 12.426 -10.07 22.5 -22.5 22.5 c -7.669 0 -14.438 -3.828 -18.5 -9.688 c 1.037 1.822 2.306 3.499 3.781 4.969 c 4.085 3.712 9.514 5.969 15.469 5.969 c 12.703 0 23 -10.298 23 -23 c 0 -5.954 -2.256 -11.384 -5.969 -15.469 c -1.469 -1.475 -3.147 -2.744 -4.969 -3.781 z m 4.969 3.781 c 3.854 4.113 6.219 9.637 6.219 15.719 c 0 12.703 -10.297 23 -23 23 c -6.081 0 -11.606 -2.364 -15.719 -6.219 c 4.16 4.144 9.883 6.719 16.219 6.719 c 12.703 0 23 -10.298 23 -23 c 0 -6.335 -2.575 -12.06 -6.719 -16.219 z" style="opacity:0.05"/>
  <path d="m 41.28 8.781 c 3.712 4.085 5.969 9.514 5.969 15.469 c 0 12.703 -10.297 23 -23 23 c -5.954 0 -11.384 -2.256 -15.469 -5.969 c 4.113 3.854 9.637 6.219 15.719 6.219 c 12.703 0 23 -10.298 23 -23 c 0 -6.081 -2.364 -11.606 -6.219 -15.719 z" style="opacity:0.1"/>
  <path d="m 31.25 2.375 c 8.615 3.154 14.75 11.417 14.75 21.13 c 0 12.426 -10.07 22.5 -22.5 22.5 c -9.708 0 -17.971 -6.135 -21.12 -14.75 a 23 23 0 0 0 44.875 -7 a 23 23 0 0 0 -16 -21.875 z" style="opacity:0.2"/>
 </g>
 <g>
  <path d="m 24 1 c 12.703 0 23 10.297 23 23 c 0 12.703 -10.297 23 -23 23 -12.703 0 -23 -10.297 -23 -23 0 -12.703 10.297 -23 23 -23 z" style="fill:url(#linearGradient3764);fill-opacity:1"/>
 </g>
 <g>
  <path d="m 40.03 7.531 c 3.712 4.084 5.969 9.514 5.969 15.469 0 12.703 -10.297 23 -23 23 c -5.954 0 -11.384 -2.256 -15.469 -5.969 4.178 4.291 10.01 6.969 16.469 6.969 c 12.703 0 23 -10.298 23 -23 0 -6.462 -2.677 -12.291 -6.969 -16.469 z" style="opacity:0.1"/>
 </g>
 <path d="m 32.847 28.831 a 4.119 4.119 0 1 1 -8.237 0 4.119 4.119 0 1 1 8.237 0 z" transform="translate(3.3559322,-0.69491554)" style="fill:#acacac;opacity:0.1;fill-opacity:1;stroke:none;fill-rule:nonzero"/>
 <path d="m 25.312 10 c -1.721 1.417 -2.201 2.599 -2.313 3.625 -0.801 -0.897 -2.01 -1.743 -4.125 -1.813 -0.942 2.75 -0.299 4.04 0.375 5.063 -1.117 -0.717 -2.606 -1.196 -4.75 -0.75 -0.294 2.976 0.395 4.444 1.219 5.469 -1.182 0.185 -2.517 0.785 -3.719 2.5 1.013 1.299 1.903 1.898 2.719 2.188 -3.884 2.371 -3.335 7.52 -2.719 12.719 6.767 1.489 10.422 0.124 12.375 -2.813 0.203 0.253 0.417 0.495 0.688 0.75 1.956 -1.113 2.626 -2.188 2.906 -3.188 0.681 0.91 1.754 1.791 3.656 2.125 0.257 -0.505 0.428 -0.955 0.563 -1.375 2.417 0.699 5.058 0.541 8.813 -3.5 -2.26 -2.878 -3.89 -4.353 -5.25 -5.063 1.112 -0.202 2.353 -0.809 3.5 -2.344 -1.901 -2.598 -3.447 -2.577 -4.75 -2.594 1.061 -0.791 2.227 -2.044 2.281 -4.563 -2.695 -0.889 -3.997 -0.292 -5 0.375 0.607 -1.116 1.052 -2.644 0.219 -4.813 -2.365 0.165 -3.444 0.921 -4.125 1.75 -0.202 -1.198 -0.772 -2.565 -2.563 -3.75 z" style="fill:#000;opacity:0.1;fill-opacity:1;stroke:none;fill-rule:nonzero"/>
 <path d="m 24.305 9 c -2.805 2.31 -2.305 4 -2.305 5.398 0 0.731 0.679 1.602 2.572 1.602 1.589 0 2.428 -0.723 2.428 -1.61 0 -1.39 0 -3.606 -2.695 -5.39 z" style="fill:#ffcb00;opacity:0.9;fill-opacity:1;stroke:none"/>
 <path d="m 31 11 c -3.625 0.253 -4.199 1.92 -5.01 3.058 -0.424 0.596 -0.377 1.698 1.165 2.797 1.294 0.922 2.397 0.82 2.912 0.098 c 0.807 -1.132 2.093 -2.937 0.933 -5.953 z" style="fill:#ffcb00;opacity:0.9;fill-opacity:1;stroke:none"/>
 <path d="m 35.776 15.439 c -3.451 -1.138 -4.613 0.187 -5.795 0.934 -0.618 0.391 -0.992 1.429 0.019 3.03 0.848 1.343 1.908 1.667 2.658 1.193 1.175 -0.742 3.049 -1.926 3.118 -5.157 z" style="fill:#ffcb00;opacity:0.9;fill-opacity:1;stroke:none"/>
 <path d="m 31 24.602 -4 7.398 c 3.85 1.045 7.05 4.408 13 -2 -4.627 -5.893 -6.659 -6 -9 -5.398 z" style="fill:#2a8925;opacity:0.722;fill-opacity:1;stroke:none"/>
 <path d="m 38.26 22.609 c -2.146 -2.933 -3.862 -2.529 -5.258 -2.609 c -0.73 -0.042 -1.638 0.586 -1.746 2.476 -0.091 1.586 0.583 2.465 1.469 2.516 1.388 0.079 3.6 0.206 5.535 -2.383 z" style="fill:#ffcb00;opacity:0.9;fill-opacity:1;stroke:none"/>
 <path d="m 36 30 c -0.237 -3.984 -2.061 -4.633 -3.302 -5.537 -0.649 -0.473 -1.861 -0.433 -3.085 1.248 -1.027 1.411 -0.928 2.623 -0.14 3.196 1.234 0.899 3.201 2.331 6.527 1.092 z" style="fill:#ffcb00;opacity:0.9;fill-opacity:1;stroke:none"/>
 <path d="m 30.624 34.864 c 1.649 -3.238 0.515 -4.588 -0.043 -5.87 c -0.292 -0.67 -1.262 -1.197 -2.998 -0.441 -1.457 0.635 -1.937 1.633 -1.583 2.446 c 0.555 1.274 1.441 3.306 4.624 3.864 z" style="fill:#ffcb00;opacity:0.9;fill-opacity:1;stroke:none"/>
 <path d="m 11 38 c -0.785 -6.627 -1.487 -13.201 7 -14 l 7 7 c -1.104 5.609 -4.529 9.08 -14 7 z" style="fill:#2a8925;opacity:0.821;fill-opacity:1;stroke:none"/>
 <path d="m 24.07 35.943 c 3.159 -1.797 2.955 -3.547 3.193 -4.925 c 0.125 -0.721 -0.395 -1.694 -2.261 -2.02 c -1.566 -0.271 -2.516 0.298 -2.667 1.172 -0.237 1.369 -0.616 3.553 1.735 5.771 z" style="fill:#ffcb00;opacity:0.9;fill-opacity:1;stroke:none"/>
 <path d="m 18.268 34.473 c 3.591 -0.56 4.02 -2.27 4.732 -3.473 c 0.372 -0.63 0.231 -1.724 -1.399 -2.688 -1.368 -0.809 -2.458 -0.613 -2.909 0.15 -0.707 1.196 -1.835 3.104 -0.424 6.01 z" style="fill:#ffcb00;opacity:0.9;fill-opacity:1;stroke:none"/>
 <path d="m 12.682 30.03 c 3.404 1.273 4.617 -0.006 5.827 -0.706 0.633 -0.366 1.047 -1.389 0.1 -3.03 c -0.795 -1.376 -1.841 -1.74 -2.609 -1.296 c -1.203 0.696 -3.122 1.804 -3.318 5.03 z" style="fill:#ffcb00;opacity:0.9;fill-opacity:1;stroke:none"/>
 <path d="m 10.995 23.08 c 2.235 2.865 3.938 2.41 5.336 2.447 c 0.731 0.019 1.619 -0.636 1.669 -2.529 c 0.042 -1.588 -0.659 -2.446 -1.546 -2.47 -1.389 -0.037 -3.605 -0.095 -5.459 2.552 z" style="fill:#ffcb00;opacity:0.9;fill-opacity:1;stroke:none"/>
 <path d="m 13.491 15.13 c -0.449 4.544 1.359 5.619 2.509 6.873 c 0.601 0.656 1.885 0.839 3.471 -0.829 1.33 -1.4 1.438 -2.788 0.709 -3.583 -1.143 -1.247 -2.965 -3.235 -6.689 -2.461 z" style="fill:#ffcb00;opacity:0.9;fill-opacity:1;stroke:none"/>
 <path d="m 17.879 10.823 c -1.178 3.438 0.134 4.615 0.867 5.805 0.383 0.623 1.417 1.01 3.03 0.016 c 1.353 -0.833 1.689 -1.889 1.223 -2.644 -0.729 -1.184 -1.89 -3.071 -5.121 -3.177 z" style="fill:#ffcb00;opacity:0.9;fill-opacity:1;stroke:none"/>
 <path d="m 38.14 28.576 a 8.136 6 0 1 1 -16.271 0 8.136 6 0 1 1 16.271 0 z" transform="matrix(0.98333338,0,0,1.3333334,-5.5000013,-15.101697)" style="fill:#fb9201;fill-opacity:1;stroke:none;fill-rule:nonzero"/>
 <path transform="matrix(0.86041671,0,0,1.1666667,-1.8125011,-10.338985)" d="m 38.14 28.576 a 8.136 6 0 1 1 -16.271 0 8.136 6 0 1 1 16.271 0 z" style="fill:#5f3b29;fill-opacity:1;stroke:none;fill-rule:nonzero"/>
</svg>
